findly-builder/apps/searchassist/src/assets/icons/onboarding/review-search.svg

<svg width="24" height="24" viewBox="0 0 24 24" fill="none" xmlns="http://www.w3.org/2000/svg">
<path d="M21 10V20C21 20.276 20.776 20.5 20.5 20.5H15V9.5H20.5C20.776 9.5 21 9.724 21 10Z" fill="#FFBCA5"/>
<path d="M15 8V20.5H9V8C9 7.724 9.224 7.5 9.5 7.5H14.5C14.776 7.5 15 7.724 15 8Z" fill="#FF784B"/>
<path d="M9 11.5V20.5H3.5C3.224 20.5 3 20.276 3 20V12C3 11.724 3.224 11.5 3.5 11.5H9Z" fill="#803C25"/>
<path d="M12.5 2.5V6.25C12.5 6.388 12.388 6.5 12.25 6.5H11.75C11.612 6.5 11.5 6.388 11.5 6.25V2.5H12.5Z" fill="#FF784B"/>
<path d="M10.5284 2.84668L11.7814 1.59368C11.9024 1.47268 12.0984 1.47268 12.2194 1.59368L13.4724 2.84668C13.5279 2.90318 13.4879 3.00018 13.4079 3.00018H10.5914C10.5119 3.00018 10.4719 2.90318 10.5284 2.84668Z" fill="#FF784B"/>
<path d="M18.5 4.5V8.25C18.5 8.388 18.388 8.5 18.25 8.5H17.75C17.612 8.5 17.5 8.388 17.5 8.25V4.5H18.5Z" fill="#FF784B"/>
<path d="M16.5284 4.84668L17.7814 3.59368C17.9024 3.47268 18.0984 3.47268 18.2194 3.59368L19.4724 4.84668C19.5279 4.90318 19.4879 5.00018 19.4079 5.00018H16.5914C16.5119 5.00018 16.4719 4.90318 16.5284 4.84668Z" fill="#FF784B"/>
<path d="M6 6.5V10.25C6 10.388 5.888 10.5 5.75 10.5H5.25C5.112 10.5 5 10.388 5 10.25V6.5H6Z" fill="#FF784B"/>
<path d="M4.0284 6.84668L5.2814 5.59368C5.4024 5.47268 5.5984 5.47268 5.7194 5.59368L6.9724 6.84668C7.0279 6.90318 6.9879 7.00018 6.9079 7.00018H4.0919C4.0119 7.00018 3.9719 6.90318 4.0284 6.84668Z" fill="#FF784B"/>
</svg>

<svg width="24" height="24" fill="none" xmlns="http://www.w3.org/2000/svg"><path d="M21 10v10a.5.5 0 0 1-.5.5H15v-11h5.5a.5.5 0 0 1 .5.5Z" fill="#FFBCA5"/><path d="M15 8v12.5H9V8a.5.5 0 0 1 .5-.5h5a.5.5 0 0 1 .5.5Z" fill="#FF784B"/><path d="M9 11.5v9H3.5A.5.5 0 0 1 3 20v-8a.5.5 0 0 1 .5-.5H9Z" fill="#803C25"/><path d="M12.5 2.5v3.75a.25.25 0 0 1-.25.25h-.5a.25.25 0 0 1-.25-.25V2.5h1Z" fill="#FF784B"/><path d="m10.528 2.847 1.253-1.253a.31.31 0 0 1 .438 0l1.253 1.253a.09.09 0 0 1-.064.153H10.59a.09.09 0 0 1-.063-.153ZM18.5 4.5v3.75a.25.25 0 0 1-.25.25h-.5a.25.25 0 0 1-.25-.25V4.5h1Z" fill="#FF784B"/><path d="m16.528 4.847 1.253-1.253a.31.31 0 0 1 .438 0l1.253 1.253a.09.09 0 0 1-.064.153H16.59a.09.09 0 0 1-.063-.153ZM6 6.5v3.75a.25.25 0 0 1-.25.25h-.5a.25.25 0 0 1-.25-.25V6.5h1Z" fill="#FF784B"/><path d="m4.028 6.847 1.253-1.253a.31.31 0 0 1 .438 0l1.253 1.253A.09.09 0 0 1 6.908 7H4.092a.09.09 0 0 1-.064-.153Z" fill="#FF784B"/></svg>
